svgs/sharp-light/presentation-screen.svg

<svg xmlns="http://www.w3.org/2000/svg" viewBox="0 0 576 512"><!--! Font Awesome Pro 6.6.0 by @fontawesome - https://fontawesome.com License - https://fontawesome.com/license (Commercial License) Copyright 2024 Fonticons, Inc. --><path d="M16 0L0 0 0 32l16 0 544 0 16 0 0-32L560 0 16 0zM64 80l0-16L32 64l0 16 0 256 0 16 16 0 224 0 0 41.4-83.3 83.3L177.4 488 200 510.6l11.3-11.3L288 422.6l76.7 76.7L376 510.6 398.6 488l-11.3-11.3L304 393.4l0-41.4 224 0 16 0 0-16 0-256 0-16-32 0 0 16 0 240-224 0L64 320 64 80z"/></svg>

<svg xmlns="http://www.w3.org/2000/svg" viewBox="0 0 576 512"><!--! Font Awesome Pro 6.5.2 by @fontawesome - https://fontawesome.com License - https://fontawesome.com/license (Commercial License) Copyright 2024 Fonticons, Inc. --><path d="M16 0H0V32H16 560h16V0H560 16zM64 80V64H32V80 336v16H48 272v41.4l-83.3 83.3L177.4 488 200 510.6l11.3-11.3L288 422.6l76.7 76.7L376 510.6 398.6 488l-11.3-11.3L304 393.4V352H528h16V336 80 64H512V80 320H288 64V80z"/></svg>
